X:907
T:Lasses Trust In Providence
S:Sessions, records, etc
Z:Nigel Gatherer
M:4/4
L:1/8
K:D
d2 de fdef | d2 fd edBA | d2 de fdef | dBAF E4 :|
A2 AB ADFA | d2 d2 BABd | A2 AB ADFA | GECE D4 :|
